X: 20794
T: Johnny McIljohn's
R: reel
M: 4/4
K: Dmajor
AG|:FA A2 BAFA|dAFA d2 AG|FA A2 BAFA|dBAF EFDE|
FA A2 BAFA|DAFA d2 AG|FA A2 BAFA|1 dBAF EFDE:|2 dBAF EF D2||
|:f3e dcdA|BAFA dAFA|f3e dfbf|afeg fedg|
f3e dedA|BAFA DFAd|f3e dcdB|1 AFGE D2 de:|2 AFGE FDDE||

